Numix/64/emotes/face-worried.svg

<?xml version="1.0" encoding="UTF-8" standalone="no"?>
<svg
   xmlns:dc="http://purl.org/dc/elements/1.1/"
   xmlns:cc="http://creativecommons.org/ns#"
   xmlns:rdf="http://www.w3.org/1999/02/22-rdf-syntax-ns#"
   xmlns:svg="http://www.w3.org/2000/svg"
   xmlns="http://www.w3.org/2000/svg"
   xmlns:sodipodi="http://sodipodi.sourceforge.net/DTD/sodipodi-0.dtd"
   xmlns:inkscape="http://www.inkscape.org/namespaces/inkscape"
   width="64px"
   height="64px"
   viewBox="0 0 48 48"
   version="1.1"
   id="svg122"
   inkscape:version="0.91 r"
   sodipodi:docname="face-worried.svg">
  <metadata
     id="metadata137">
    <rdf:RDF>
      <cc:Work
         rdf:about="">
        <dc:format>image/svg+xml</dc:format>
        <dc:type
           rdf:resource="http://purl.org/dc/dcmitype/StillImage" />
      </cc:Work>
    </rdf:RDF>
  </metadata>
  <defs
     id="defs135" />
  <sodipodi:namedview
     pagecolor="#ffffff"
     bordercolor="#666666"
     borderopacity="1"
     objecttolerance="10"
     gridtolerance="10"
     guidetolerance="10"
     inkscape:pageopacity="0"
     inkscape:pageshadow="2"
     inkscape:window-width="640"
     inkscape:window-height="480"
     id="namedview133" />
  <g
     id="surface1">
    <path
       style=" stroke:none;fill-rule:nonzero;fill:rgb(100%,85.490196%,36.862745%);fill-opacity:1;"
       d="M 42 24 C 42 32.5625 33.941406 39.5 24 39.5 C 14.058594 39.5 6 32.5625 6 24 C 6 15.441406 14.058594 8.5 24 8.5 C 33.941406 8.5 42 15.441406 42 24 Z M 42 24 "
       id="path125" />
    <path
       style=" stroke:none;fill-rule:nonzero;fill:rgb(39.607843%,39.607843%,39.607843%);fill-opacity:1;"
       d="M 32.5 19.5 C 32.5 17.566406 31.378906 16 30 16 C 28.621094 16 27.5 17.566406 27.5 19.5 C 27.5 21.433594 28.621094 23 30 23 C 31.378906 23 32.5 21.433594 32.5 19.5 Z M 32.5 19.5 "
       id="path127" />
    <path
       style=" stroke:none;fill-rule:nonzero;fill:rgb(39.607843%,39.607843%,39.607843%);fill-opacity:1;"
       d="M 20.5 19.5 C 20.5 17.566406 19.378906 16 18 16 C 16.621094 16 15.5 17.566406 15.5 19.5 C 15.5 21.433594 16.621094 23 18 23 C 19.378906 23 20.5 21.433594 20.5 19.5 Z M 20.5 19.5 "
       id="path129" />
    <path
       style=" stroke:none;fill-rule:nonzero;fill:rgb(39.607843%,39.607843%,39.607843%);fill-opacity:1;"
       d="M 27.308594 32.980469 C 26.296875 32.894531 25.117188 32.550781 23.125 31.761719 C 21.84375 31.25 21.390625 31.109375 20.824219 31.027344 C 20.304688 30.953125 19.972656 30.964844 19.601562 31.128906 C 19.09375 31.332031 18.796875 31.800781 18.707031 32.5625 L 18.664062 33 L 17 33 L 17 32.59375 C 17 31.839844 17.246094 31.121094 17.683594 30.589844 C 17.855469 30.378906 18.234375 30.066406 18.476562 29.929688 C 18.726562 29.792969 19.179688 29.632812 19.507812 29.566406 C 19.945312 29.476562 20.8125 29.480469 21.324219 29.566406 C 22.105469 29.703125 22.945312 29.972656 24.71875 30.660156 C 26.28125 31.269531 26.980469 31.453125 27.746094 31.453125 C 28.148438 31.453125 28.199219 31.449219 28.382812 31.378906 C 28.738281 31.242188 29.015625 30.957031 29.167969 30.5625 C 29.234375 30.386719 29.320312 29.929688 29.320312 29.734375 L 29.320312 29.5 L 31 29.5 L 31 29.875 C 31 30.214844 30.953125 30.585938 30.875 30.890625 C 30.59375 32 29.769531 32.714844 28.535156 32.933594 C 28.289062 33 27.574219 33.003906 27.308594 33 Z M 27.308594 32.980469 "
       id="path131" />
  </g>
</svg>

<svg xmlns="http://www.w3.org/2000/svg" width="64" height="64" viewBox="0 0 48 48">
 <g>
  <path d="m 42 24 c 0 8.563 -8.06 15.5 -18 15.5 c -9.941 0 -18 -6.938 -18 -15.5 c 0 -8.559 8.06 -15.5 18 -15.5 c 9.941 0 18 6.941 18 15.5 m 0 0" style="fill:#ffd95d;fill-opacity:1;stroke:none;fill-rule:nonzero"/>
  <path d="m 32.5 19.5 c 0 -1.934 -1.121 -3.5 -2.5 -3.5 c -1.379 0 -2.5 1.566 -2.5 3.5 c 0 1.934 1.121 3.5 2.5 3.5 c 1.379 0 2.5 -1.566 2.5 -3.5 m 0 0" style="fill:#646464;fill-opacity:1;stroke:none;fill-rule:nonzero"/>
  <path d="m 20.5 19.5 c 0 -1.934 -1.121 -3.5 -2.5 -3.5 c -1.379 0 -2.5 1.566 -2.5 3.5 c 0 1.934 1.121 3.5 2.5 3.5 c 1.379 0 2.5 -1.566 2.5 -3.5 m 0 0" style="fill:#646464;fill-opacity:1;stroke:none;fill-rule:nonzero"/>
  <path d="m 27.309 32.98 c -1.012 -0.086 -2.191 -0.43 -4.184 -1.219 c -1.281 -0.512 -1.734 -0.652 -2.301 -0.734 c -0.52 -0.074 -0.852 -0.063 -1.223 0.102 c -0.508 0.203 -0.805 0.672 -0.895 1.434 l -0.043 0.438 l -1.664 0 l 0 -0.406 c 0 -0.754 0.246 -1.473 0.684 -2 c 0.172 -0.211 0.551 -0.523 0.793 -0.66 c 0.25 -0.137 0.703 -0.297 1.031 -0.363 c 0.438 -0.09 1.305 -0.086 1.816 0 c 0.781 0.137 1.621 0.406 3.395 1.094 c 1.563 0.609 2.262 0.793 3.03 0.793 c 0.402 0 0.453 -0.004 0.637 -0.074 c 0.355 -0.137 0.633 -0.422 0.785 -0.816 c 0.066 -0.176 0.152 -0.633 0.152 -0.828 l 0 -0.234 l 1.68 0 l 0 0.375 c 0 0.34 -0.047 0.711 -0.125 1.016 c -0.281 1.109 -1.105 1.824 -2.34 2.043 c -0.246 0.066 -0.961 0.07 -1.227 0.066 m 0 -0.02" style="fill:#646464;fill-opacity:1;stroke:none;fill-rule:nonzero"/>
 </g>
</svg>
